X: 13282
T: Five Year , The
R: hornpipe
M: 4/4
K: Dmajor
|:(3ABc|dfAF GBed|cABc dAfA|gGBd FAfd|ed (3cdB ABce|
dAfA GBed|cAGA FAdA|GBeg fd (3edc|d2f2d2:|
|:cd|eABc fdef|gBed cAGE|DEFG Adgf|ed (3cdB ABce|
dAfA GBed|cAGA FAdA|GBeg fd (3edc|d2 f2 d2:|

